X:5
T: Stärni-Juiz  Bb (trad.)
T:Dirigenten-Notiz, Edi Gasser. 
C:Unterwalden (CH)
%%partsbox
M:3/4
%Q:1/4=110
R:Naturjodel
L:1/8
K:Bb
[P:A] "langsam, gemütvoll" GG FF DF/D/ | EF FeA2 | GG FF EF/E/ | DF FdB2 | 
GG FF DF/D/ | EF FeA2 | GG F"rit."F E/F/d/c/ | B6 || 
[P:B] "bewegter" Ge ceG2 | Fd BdF2 | Fe AF e/F/G/F/ | Fd BF "kurz" !fermata!d2 | 
Ge ceG2 | Fd BdF2 | Fe AF "rit."f/e/d/c/ | B6 |] 
W: Parts: A-B-A-B
W:
W:Leibjodel der "Stärni-Buebe". 
W:Stärni ist ein alter Name des Heimwesens der Gebrüder Odermatt 
W:- der "Stärni-Buebe" in der Kählen am Stanserhorn in Stans.
W:Mitgeteilt von Robert von Matt, einem damals bekannten Musiker in Stans.
W: (Angaben von Heinrich Leuthold)
W:
W: UJV-Naturjodelsammlung: Code-Nr: 00-23
W:http://www.naturjodler.ch/tradition-3.htm  (with AUDIO)
%April 23, 2018

